img/recevez/3.svg

<svg width="160" height="160" viewBox="0 0 160 160" fill="none" xmlns="http://www.w3.org/2000/svg">
<g id="ion:documents">
<path id="Vector" d="M93.7488 77C93.9951 77.0002 94.236 76.9314 94.4411 76.8022C94.6463 76.6731 94.8068 76.4893 94.9022 76.274C94.9977 76.0587 95.024 75.8214 94.9778 75.592C94.9316 75.3625 94.815 75.1512 94.6426 74.9843L70.1408 51.3537C69.9667 51.186 69.7439 51.0713 69.5008 51.0241C69.2577 50.9769 69.0052 50.9994 68.7756 51.0887C68.5461 51.178 68.3497 51.3302 68.2116 51.5257C68.0734 51.7212 67.9998 51.9513 68 52.1867V73.443C68 74.3863 68.3951 75.2911 69.0984 75.9582C69.8018 76.6252 70.7556 77 71.7503 77H93.7488Z" fill="#13023E"/>
<path id="Vector_2" d="M62.8803 83.3686C61.6431 82.1365 60.66 80.6691 59.9879 79.0512C59.3158 77.4333 58.968 75.6969 58.9645 73.9425V45.9683H37.2774C32.1694 45.9836 27.2749 48.0388 23.6629 51.685C20.051 55.3312 18.0151 60.2721 18 65.4286V133.54C18 138.701 20.031 143.651 23.6462 147.3C27.2614 150.95 32.1647 153 37.2774 153H80.6516C85.7643 153 90.6676 150.95 94.2828 147.3C97.898 143.651 99.9291 138.701 99.9291 133.54V87.3215H72.2178C70.4797 87.319 68.7594 86.9683 67.1566 86.2898C65.5537 85.6112 64.1002 84.6183 62.8803 83.3686ZM115.592 38.6707H136.794C137.031 38.6709 137.264 38.6004 137.461 38.4679C137.659 38.3354 137.814 38.1469 137.906 37.926C137.998 37.7051 138.023 37.4618 137.979 37.2264C137.934 36.991 137.822 36.7742 137.656 36.6031L114.041 12.3628C113.873 12.1908 113.658 12.0731 113.424 12.0247C113.19 11.9763 112.946 11.9994 112.725 12.091C112.504 12.1826 112.314 12.3387 112.181 12.5392C112.048 12.7398 111.977 12.9758 111.977 13.2173V35.0219C111.977 35.9897 112.358 36.9177 113.036 37.602C113.714 38.2863 114.633 38.6707 115.592 38.6707Z" fill="#13023E"/>
<path id="Vector_3" d="M116.16 48.0833C112.637 48.0565 109.265 46.6475 106.774 44.1606C104.282 41.6737 102.871 38.3085 102.844 34.7917V7H70.1585C65.3443 7.0056 60.7289 8.91699 57.3247 12.3149C53.9205 15.7128 52.0056 20.3197 52 25.125V36H64.7473C66.3743 36.0065 67.9841 36.3338 69.484 36.9632C70.9839 37.5925 72.3445 38.5115 73.4875 39.6673L106.524 73.1985C108.829 75.5327 110.116 78.6817 110.104 81.959V123H126.159C135.998 123 144 114.868 144 104.875V48.0833H116.16Z" fill="#13023E"/>
</g>
</svg>

<svg width="160" height="160" viewBox="0 0 160 160" fill="none" xmlns="http://www.w3.org/2000/svg"><g id="ion:documents" fill="#13023E"><path id="Vector" d="M93.749 77c.246 0 .487-.069.692-.198a1.2 1.2 0 00.461-.528c.096-.215.122-.453.076-.682a1.167 1.167 0 00-.335-.608L70.14 51.354a1.271 1.271 0 00-.64-.33 1.314 1.314 0 00-.725.065 1.23 1.23 0 00-.564.437 1.142 1.142 0 00-.212.66v21.257c0 .943.395 1.848 1.098 2.515A3.857 3.857 0 0071.75 77h22z"/><path id="Vector_2" d="M62.88 83.369a13.285 13.285 0 01-2.892-4.318 13.388 13.388 0 01-1.023-5.109V45.968H37.276a19.244 19.244 0 00-13.614 5.717A19.612 19.612 0 0018 65.429v68.111a19.553 19.553 0 005.646 13.76 19.184 19.184 0 0013.631 5.7h43.375a19.18 19.18 0 0013.63-5.7 19.553 19.553 0 005.647-13.76V87.322H72.218a13.03 13.03 0 01-5.061-1.032 13.13 13.13 0 01-4.277-2.921zm52.712-44.698h21.202a1.213 1.213 0 001.185-1.444 1.225 1.225 0 00-.323-.624l-23.615-24.24a1.204 1.204 0 00-1.316-.272 1.21 1.21 0 00-.748 1.126v21.805c0 .968.381 1.896 1.059 2.58a3.597 3.597 0 002.556 1.069z"/><path id="Vector_3" d="M116.16 48.083a13.43 13.43 0 01-9.386-3.922 13.38 13.38 0 01-3.93-9.37V7H70.159a18.197 18.197 0 00-12.834 5.315A18.13 18.13 0 0052 25.125V36h12.747a12.37 12.37 0 018.74 3.667l33.037 33.531a12.403 12.403 0 013.58 8.761V123h16.055c9.839 0 17.841-8.132 17.841-18.125V48.083h-27.84z"/></g></svg>
